img/svgicons/hazelnut.svg

<svg width="51" height="51" viewBox="0 0 51 51" fill="none" xmlns="http://www.w3.org/2000/svg">
<g clip-path="url(#clip0_42_1)">
<path d="M41.9111 8.96675C33.5996 0.65683 24.1232 -1.99564 15.218 1.50584L14.0701 1.95797L14.7413 2.99452C15.0511 3.47311 15.3608 3.91512 15.6709 4.34001C13.3527 5.51158 11.122 7.15901 9.02357 9.25663C4.58671 13.6935 1.45488 21.2521 0.428444 29.997C-0.282045 36.0478 0.186037 41.4629 1.60624 44.9005C1.87277 45.8313 2.28871 46.6013 2.86885 47.1674C2.90426 47.2017 2.94862 47.2157 2.98714 47.2441C3.03539 47.3005 3.08286 47.3561 3.13227 47.4094C3.14433 47.4227 3.15367 47.4378 3.16534 47.4511C3.17468 47.4608 3.17663 47.4732 3.18674 47.4834C3.1918 47.4884 3.19803 47.4935 3.20386 47.4985C3.20698 47.5016 3.20814 47.5048 3.21126 47.5075C3.21398 47.5106 3.21826 47.5118 3.22098 47.5137C3.22604 47.5188 3.23227 47.5238 3.2381 47.5289C3.25133 47.5417 3.2634 47.5592 3.27663 47.5725C3.36028 47.6592 3.46962 47.7339 3.56028 47.8164C3.57856 47.8308 3.59452 47.8479 3.6128 47.862C5.8252 49.8483 9.92822 50.9654 15.2884 50.9988C15.3674 51 15.446 51 15.525 51C23.9901 51 35.2693 48.1818 41.6096 41.8415C43.7675 39.6835 45.4511 37.3762 46.632 34.9669C47.0771 35.2615 47.5406 35.5552 48.0351 35.8482L49.0705 36.4618L49.4946 35.3342C52.8027 26.529 50.1101 17.1642 41.9111 8.96675V8.96675ZM40.1812 40.4139C34.1922 46.4032 23.3388 49.0195 15.3005 48.9802C13.9347 48.972 12.6542 48.8771 11.4651 48.7199C16.9969 47.6234 23.8633 44.0578 27.0317 38.8851C27.3235 38.4096 27.1741 37.7879 26.6986 37.4972C26.2212 37.2066 25.6018 37.356 25.3111 37.8303C22.2699 42.794 14.9351 46.3803 9.60099 46.9775C7.28548 47.234 5.50225 46.9172 4.67037 46.1056C4.65636 46.0916 4.64391 46.0733 4.63107 46.0593C4.05248 44.8266 7.41388 37.4898 12.2375 33.9109C12.6842 33.579 12.7783 32.9471 12.4461 32.5001C12.113 32.0518 11.4815 31.9588 11.0352 32.2911C7.73683 34.7385 4.6583 39.2505 3.30269 42.6951C3.2774 42.1014 3.29686 41.4555 3.37546 40.7543C3.97389 35.4191 7.55901 28.083 12.5227 25.043C12.9982 24.7524 13.1476 24.1306 12.8558 23.6551C12.5651 23.18 11.9445 23.0314 11.4683 23.3224C6.93724 26.0971 3.64004 31.7086 2.15331 36.7766C2.0786 34.7397 2.16537 32.5191 2.43384 30.2332C3.39258 22.0536 6.39017 14.7452 10.4508 10.6846C12.5068 8.62863 14.688 7.04384 16.9417 5.96293C20.1311 9.68814 23.1559 10.8924 25.094 11.2546C24.8749 11.5616 24.6882 11.8632 24.4944 12.1675C24.3925 12.327 24.2746 12.4881 24.1796 12.6468C24.0536 12.8565 23.9528 13.0624 23.8376 13.2713C23.7003 13.52 23.5509 13.7709 23.4287 14.0164C23.3723 14.1304 23.331 14.2406 23.2785 14.3534C23.1209 14.6884 22.9633 15.0226 22.8334 15.3506C22.8182 15.3892 22.8081 15.4254 22.7941 15.4639C20.5937 21.103 22.2318 25.5994 22.6917 26.6601L22.8505 27.0266L23.217 27.1854C24.2018 27.6111 28.1496 29.0616 33.2265 27.5013C33.2284 27.5013 33.2292 27.5002 33.2312 27.5002C33.5977 27.3869 33.972 27.2508 34.3498 27.1052C34.4082 27.0823 34.4658 27.0671 34.5241 27.0438C34.8109 26.9298 35.1047 26.7885 35.3973 26.6543C35.5517 26.5827 35.7031 26.5251 35.8595 26.4473C36.0887 26.3333 36.3237 26.1928 36.5568 26.066C36.7809 25.9426 37.0019 25.8337 37.228 25.6975C37.3914 25.5994 37.5591 25.4776 37.7237 25.3714C38.0213 25.1804 38.3182 24.9979 38.6198 24.7831C39.0116 26.8924 40.4123 30.2869 44.9655 33.7802C43.8776 36.0941 42.2726 38.3229 40.1812 40.4139V40.4139ZM48.0016 33.4568C47.7009 33.2631 47.4363 33.0701 47.1596 32.8775L46.8083 32.6242C39.9835 27.6936 40.4789 23.2042 40.5123 22.959L40.9687 20.2428L40.9516 20.2571L38.861 22.0334C32.1997 27.6916 26.0621 26.0807 24.3944 25.4792C24.2816 25.1664 24.1329 24.696 24.0038 24.0956C23.8314 23.294 23.6929 22.2594 23.7182 21.0532C23.7746 18.3401 24.6567 14.76 27.8402 11.0134L29.6137 8.92745L26.9967 9.3504L26.9146 9.36246C26.9025 9.36441 26.8726 9.3683 26.8309 9.37141C26.8177 9.37258 26.7979 9.37336 26.7807 9.37452C26.7574 9.37647 26.7302 9.37764 26.701 9.37958C25.8057 9.41382 22.1439 9.21188 18.0237 4.08554L17.735 3.72757C17.5413 3.47622 17.3475 3.23303 17.1526 2.95833C24.9174 0.457223 33.1522 3.06533 40.482 10.3959C47.7211 17.6308 50.3611 25.773 48.0016 33.4568V33.4568Z" fill="white"/>
</g>
<defs>
<clipPath id="clip0_42_1">
<rect width="51" height="51" fill="white"/>
</clipPath>
</defs>
</svg>

<svg width="51" height="51" fill="none" xmlns="http://www.w3.org/2000/svg"><g clip-path="url(#a)"><path d="M41.911 8.967C33.6.657 24.123-1.996 15.218 1.506l-1.148.452.671 1.037c.31.478.62.92.93 1.345-2.318 1.172-4.549 2.819-6.647 4.917-4.437 4.437-7.57 11.995-8.596 20.74-.71 6.05-.242 11.466 1.178 14.904.267.93.683 1.7 1.263 2.266.035.035.08.049.118.077.048.056.096.112.145.165l.033.042c.01.01.012.022.022.032l.017.016.007.008c.003.004.007.005.01.007l.017.015c.013.013.025.03.039.043.083.087.193.162.283.244.019.015.035.032.053.046 2.212 1.986 6.315 3.103 11.675 3.137l.237.001c8.465 0 19.744-2.818 26.085-9.158 2.157-2.158 3.841-4.466 5.022-6.875.445.294.909.588 1.403.881l1.036.614.424-1.128c3.308-8.805.615-18.17-7.584-26.367Zm-1.73 31.447c-5.989 5.99-16.842 8.605-24.88 8.566a30.666 30.666 0 0 1-3.836-.26c5.532-1.097 12.398-4.662 15.567-9.835a1.008 1.008 0 1 0-1.72-1.055C22.27 42.794 14.934 46.38 9.6 46.978c-2.316.256-4.099-.06-4.93-.872-.015-.014-.027-.033-.04-.047-.579-1.232 2.783-8.57 7.607-12.148a1.009 1.009 0 0 0-1.203-1.62c-3.298 2.448-6.377 6.96-7.732 10.404-.026-.594-.006-1.24.072-1.94.599-5.336 4.184-12.672 9.148-15.712a1.008 1.008 0 1 0-1.055-1.72c-4.53 2.774-7.828 8.386-9.315 13.454a43.064 43.064 0 0 1 .28-6.544c.96-8.18 3.957-15.488 8.018-19.548 2.056-2.056 4.237-3.641 6.49-4.722 3.19 3.725 6.215 4.93 8.153 5.292-.22.307-.406.608-.6.912-.102.16-.22.321-.314.48-.126.21-.227.415-.342.624-.138.249-.287.5-.41.745-.056.114-.097.225-.15.337-.157.335-.315.67-.445.998-.015.038-.025.074-.039.113-2.2 5.639-.562 10.135-.102 11.196l.159.367.366.158c.985.426 4.933 1.877 10.01.316h.004c.367-.114.741-.25 1.119-.396.058-.023.116-.038.174-.061.287-.114.58-.256.873-.39.155-.071.306-.129.462-.207.23-.114.465-.254.698-.381.224-.123.445-.232.671-.368.163-.099.331-.22.496-.327.297-.19.594-.373.896-.588.392 2.11 1.792 5.504 6.346 8.997-1.088 2.314-2.693 4.543-4.785 6.634Zm7.82-6.957c-.3-.194-.565-.387-.841-.58l-.352-.253c-6.825-4.93-6.33-9.42-6.296-9.665l.457-2.716-.017.014-2.091 1.776c-6.661 5.659-12.799 4.048-14.467 3.446a10.807 10.807 0 0 1-.39-1.383 13.192 13.192 0 0 1-.286-3.043c.057-2.713.939-6.293 4.122-10.04l1.774-2.086-2.617.423-.082.012a1.103 1.103 0 0 1-.084.01l-.05.003-.08.005c-.895.034-4.557-.168-8.677-5.294l-.289-.358c-.194-.252-.387-.495-.582-.77 7.764-2.5 16 .107 23.329 7.438 7.24 7.235 9.88 15.377 7.52 23.06Z" fill="#fff"/></g><defs><clipPath id="a"><path fill="#fff" d="M0 0h51v51H0z"/></clipPath></defs></svg>
